!!!OTL: Die niederlaendischen Grasmaedchen. / (Tanzlied.)
!!!ARE: Europa, Mitteleuropa, Deutschland
!!!TXL: @@DUM
!!!SCT: A0086
!!!YEM: Copyright 1995, estate of Helmut Schaffrath.
**kern	**text
*M3/2	*
*met(C|3)	*
*clefC3	*
*k[b-]	*
*F:ion	*
!LO:TX:a:t=jon.	!
{4f	Die
=1	=1
!LO:TX:a:t=P:coloured notes:problem	!
2f	nie-
!LO:TX:a:t=P:coloured notes:problem	!
2f	-der-
4e	-länd-
4f	-ſchen
=2	=2
*lig	*
4.g	mäg-
8f	.
*Xlig	*
4e	-de-
!LO:TX:a:t=P:coloured notes:problem	!
2d}	-lein,
{4e	die
=3	=3
!LO:TX:a:t=P:coloured notes:problem	!
2f	gien-
!LO:TX:a:t=P:coloured notes:problem	!
2f	-gen
4e	frü
4c	ins
=4	=4
*lig	*
4.d	gras,
8c	.
4A	.
4d	.
4c}	.
*Xlig	*
{4A	ſie
=5	=5
!LO:TX:a:t=P:coloured notes:problem	!
2F	giengen
!LO:TX:a:t=P:coloured notes:problem	!
2F	.
4c	in
4c	den
=6	=6
*lig	*
!LO:TX:a:t=P:coloured notes:problem	!
2d	gar-
4e	.
*Xlig	*
!LO:TX:a:t=P:coloured notes:problem	!
2f}	-ten,
{4e	und
=7	=7
*lig	*
4d	da
4c	.
*Xlig	*
4B-	der
4A	ſchreiber
!LO:TX:a:t=P:coloured notes:problem	!
2G	.
=8	=8
!LO:TX:a:t=P:in the source as 2:problem	!
!LO:TX:a:t=P:coloured notes:problem	!
[1F	ſaß.
4Fyy]}	.
==	==
!!!GTL: Balladen und Romanzen (erzählende Volkslieder)
!!!AGN: Romanze, Ballade, Lied
!! Forster II 1540 No. 11.
!!!ONB: ESAC (Essen Associative Code) Database: ALTDEU
!!!AMT: simple triple
!!!AIN: vox
!!!EED: Helmut Schaffrath
!!!EEV: 1.0
!!!URL-scan: https://rosdok.uni-rostock.de/mcrviewer/recordIdentifier/rosdok_ppn738218359/iview2/phys_0248.iview2?x=-425.8853427895981&y=1624.6269503638614&scale=0.4823261117445838&rotation=0&layout=singlePageLayout
!!!ENC: Anna Maria Matuszewska
!!!EEV: 2024/22/02
*-	*-
